X: 12243
T: Fair-haired Lass, The
R: reel
M: 4/4
K: Amixolydian
ea-aa efgf|ea-aa ABcd|ea-aa efge|a/g/fge d2cd:|
eeAe- efgf|eeAB- BAGB|1 eeAe- efge|a/g/fge d2cd:|2 ABcd efge|(3a2.g2.e2 d4||

